X:0061
T:Hopeton House.
T:Sweet Molly
N:first published by Bremner in the 1750s
N:has many 19th century Irish titles
M:2/4
L:1/8
Q:1/2=100
I: :: ::
% D E ^F A B d e ^f g 
Z:Jack Campin * www.campin.me.uk * 2009
K:E Minor
d|E/E/E BE |dEBe|dBAF|DEFA|E/E/E   BE  |dEBe|dBAF| {FA}B2 E:|
d|Ee````e>f|gefd|BdAF|DEFD|E(e`````e>f)|gefd|BdFA|({FA}B2)E:|
<end>
<start>
